!! 00000] TT[00
!! NN
!!!OTL: Song xin niang
!!!ARE: Xinjiang, Chabuchar (Nordwesten)
!! Ethnic Group: Xibo
!! IV, 548
!!!SCT: C0438
!!!YEM: Copyright 1995, estate of Helmut Schaffrath.
**kern
*ICvox
*Ivox
*M2/4
*k[b-]
*F:
{8dd
8dd
16dd
16ee
16dd
16cc
=1
8dd
8dd
4ff}
=2
{8gg
8ff
16dd
16ee
16dd
16cc
=3
8dd
8dd
4dd}
=4
{8ff
8ff
16dd
16ff
16dd
16cc
=5
8a
8g
4g}
=6
{8f
16f
16g
16a
16g
16f
16e
=7
4d
4d}
==
!!!ONB: ESAC (Essen Associative Code) Database: CHINA
!!!AMT: simple duple
!!!AIN: vox
!!!EED: Helmut Schaffrath
!!!EEV: 1.0
*-
